X:1
T:Title
%%score [ ( 1 2 ) ( 3 4 ) ] { ( 5 6 ) | ( 7 8 ) }
L:1/8
Q:1/4=120
M:4/4
K:E
V:1 treble nm="Midi_74"
V:2 treble 
V:3 bass nm="Midi_74"
V:4 bass 
V:5 treble nm="Org."
V:6 treble 
V:7 bass 
V:8 bass 
V:1
 B8 |"^Double counterpoint." c4 d4 | e8 || B8 | (c2 d2) e4 | F4 A4 | G8 || B8 | B4 A4 | G8 || E8 | %11
 A4 G4 |"^William Henry Havergal\n(1793-1870)" A4 F4 | E8 |] %14
V:2
 G8 | G4 F4 | E8 || G8 | A4 E4 | E4 D4 | E8 || D8 | E4 F4 | E8 || E8 | (C2 D2) E4 | C4 D4 | E8 |] %14
V:3
 E8 | C4 ^B,4 | C8 || B,8 | A,4 B,4 | C4 B,4 | B,8 || B,8 | G,4 B,4 | B,8 || B,8 | (A,2 F,2) E,4 | %12
 F,4 A,4 | G,8 |] %14
V:4
 E,8 | E,4 D,4 | C,8 || E,8 | A,4 G,4 | A,4 B,4 | E,8 || B,,8 | C,4 D,4 | E,8 || G,,8 | %11
 (A,,2 B,,2) C,4 | F,,4 B,,4 | E,8 |] %14
V:5
 B8 | c4 d4 | e8 || B8 | c2 d2 e4 | F4 A4 | G8 || B8 | B4 A4 | G8 || E8 | A4 G4 | A4 F4 | E8 |] %14
V:6
 [EG]8 | G4 [F^B]4 | [Ec]8 || [EG]8 | [EA]4 E4 | [CE]4 D4 | E8 || D8 | E4 [B,F]4 | [B,E]8 || %10
 [B,E]8 | C2 D2 E4 | C4 D4 | E8 |] %14
V:7
 x8 | x8 | x8 || x8 | x8 | x8 | x8 || x8 | x8 | x8 || x8 | A,2 F,2 E,4 | F,4 A,4 | G,8 |] %14
V:8
 E,8 | E,4 D,4 | C,8 || E,8 | A,4 G,4 | A,4 B,4 | [E,B,]8 || B,,8 | C,4 D,4 | E,8 || G,,8 | %11
 A,,2 B,,2 C,4 | F,,4 B,,4 | E,8 |] %14

